src/images/global/icons/utility/collection.svg

<?xml version="1.0" encoding="UTF-8"?>
<svg width="48px" height="48px" viewBox="0 0 48 48" version="1.1" xmlns="http://www.w3.org/2000/svg" xmlns:xlink="http://www.w3.org/1999/xlink">
    <!-- Generator: Sketch 46.2 (44496) - http://www.bohemiancoding.com/sketch -->
    <title>icon/Utility/collection</title>
    <desc>Created with Sketch.</desc>
    <defs>
        <path d="M25.9968583,2.38172678 C25.98245,2.08249882 25.9181,1.79707962 25.8123667,1.5343707 C25.7973083,1.49682455 25.7813833,1.45973489 25.7645917,1.42310172 C25.53005,0.911036171 25.135175,0.495061369 24.6490833,0.247987173 C24.6143083,0.230298258 24.5791,0.213522319 24.5434583,0.197659357 C24.294075,0.0862762552 24.023025,0.018487769 23.7390833,0.00330953889 C23.6985667,0.00114122031 23.657725,0 23.6166667,0 L2.38333333,0 C2.342275,0 2.30143333,0.00114122031 2.26091667,0.00330953889 C1.0439,0.0684732184 0.065,1.09967989 0.00314166667,2.38172678 C0.00108333333,2.42440842 0,2.46743243 0,2.51068468 L0,17.4893153 C0,17.5325676 0.00108333333,17.5755916 0.00314166667,17.6182732 C0.065,18.9003201 1.0439,19.9315268 2.26091667,19.9966905 C2.30143333,19.9988588 2.342275,20 2.38333333,20 L23.6166667,20 C23.657725,20 23.6985667,19.9988588 23.7390833,19.9966905 C24.9561,19.9315268 25.935,18.9003201 25.9968583,17.6182732 C25.9989167,17.5755916 26,17.5325676 26,17.4893153 L26,2.51068468 C26,2.46743243 25.9989167,2.42440842 25.9968583,2.38172678 L25.9968583,2.38172678 Z M3.50989167,15.9847305 L3.50989167,4.02462753 C3.50989167,3.64323171 3.80336667,3.33407513 4.16541667,3.33407513 L10.2022917,3.33407513 C10.5643417,3.33407513 10.8578167,3.64323171 10.8578167,4.02462753 L10.8578167,15.9847305 C10.8578167,16.3661263 10.5643417,16.6752829 10.2022917,16.6752829 L4.16541667,16.6752829 C3.80336667,16.6752829 3.50989167,16.3661263 3.50989167,15.9847305 L3.50989167,15.9847305 Z M11.9597833,15.9847305 L11.9597833,10.7579415 C11.9597833,10.3765456 12.2532583,10.0673891 12.6153083,10.0673891 L16.0196833,10.0673891 C16.3817333,10.0673891 16.6752083,10.3765456 16.6752083,10.7579415 L16.6752083,15.9847305 C16.6752083,16.3661263 16.3817333,16.6752829 16.0196833,16.6752829 L12.6153083,16.6752829 C12.2532583,16.6752829 11.9597833,16.3661263 11.9597833,15.9847305 L11.9597833,15.9847305 Z M17.7746833,15.9847305 L17.7746833,10.7579415 C17.7746833,10.3765456 18.0681583,10.0673891 18.4302083,10.0673891 L21.8345833,10.0673891 C22.1966333,10.0673891 22.4901083,10.3765456 22.4901083,10.7579415 L22.4901083,15.9847305 C22.4901083,16.3661263 22.1966333,16.6752829 21.8345833,16.6752829 L18.4302083,16.6752829 C18.0681583,16.6752829 17.7746833,16.3661263 17.7746833,15.9847305 L17.7746833,15.9847305 Z M22.4901083,8.22454651 C22.4901083,8.60582821 22.1966333,8.91509892 21.8345833,8.91509892 L12.6153083,8.91509892 C12.2532583,8.91509892 11.9597833,8.60582821 11.9597833,8.22454651 L11.9597833,4.02462753 C11.9597833,3.64323171 12.2532583,3.33407513 12.6153083,3.33407513 L21.8345833,3.33407513 C22.1966333,3.33407513 22.4901083,3.64323171 22.4901083,4.02462753 L22.4901083,8.22454651 L22.4901083,8.22454651 Z" id="path-1"></path>
    </defs>
    <g id="Symbols" stroke="none" stroke-width="1" fill="none" fill-rule="evenodd">
        <g id="icon/Utility/collection">
            <g id="Icon" transform="translate(11.000000, 14.000000)">
                <mask id="mask-2" fill="white">
                    <use xlink:href="#path-1"></use>
                </mask>
                <use id="Mask" fill="#384048" xlink:href="#path-1"></use>
                <g id="Color/Grayscale/Night-Sky" mask="url(#mask-2)" fill="#111111">
                    <g transform="translate(-11.000000, -14.000000)" id="Swatch">
                        <rect x="0" y="0" width="48" height="48"></rect>
                    </g>
                </g>
            </g>
        </g>
    </g>
</svg>

<?xml version="1.0" encoding="utf-8"?>
<!-- Generator: Adobe Illustrator 21.0.2, SVG Export Plug-In . SVG Version: 6.00 Build 0)  -->
<svg version="1.1" id="icon_x2F_Utility_x2F_collection-Layer_1" xmlns="http://www.w3.org/2000/svg" xmlns:xlink="http://www.w3.org/1999/xlink" x="0px" y="0px"
	 viewBox="0 0 48 48" style="enable-background:new 0 0 48 48;" xml:space="preserve">
<title>icon/Utility/collection</title>
<desc>Created with Sketch.</desc>
<g id="icon_x2F_Utility_x2F_collection-Symbols">
	<g id="icon_x2F_Utility_x2F_collection">
		<g id="icon_x2F_Utility_x2F_collection-Icon" transform="translate(11.000000, 14.000000)">
			<g id="icon_x2F_Utility_x2F_collection-Mask">
				<path id="icon_x2F_Utility_x2F_collection-path-1_1_" style="fill:#384048;" d="M26,2.4c0-0.3-0.1-0.6-0.2-0.8c0,0,0-0.1,0-0.1c-0.2-0.5-0.6-0.9-1.1-1.2
					c0,0-0.1,0-0.1-0.1C24.3,0.1,24,0,23.7,0c0,0-0.1,0-0.1,0H2.4c0,0-0.1,0-0.1,0C1,0.1,0.1,1.1,0,2.4c0,0,0,0.1,0,0.1v15
					c0,0,0,0.1,0,0.1c0.1,1.3,1,2.3,2.3,2.4c0,0,0.1,0,0.1,0h21.2c0,0,0.1,0,0.1,0c1.2-0.1,2.2-1.1,2.3-2.4c0,0,0-0.1,0-0.1v-15
					C26,2.5,26,2.4,26,2.4L26,2.4z M3.5,16V4c0-0.4,0.3-0.7,0.7-0.7h6c0.4,0,0.7,0.3,0.7,0.7v12c0,0.4-0.3,0.7-0.7,0.7h-6
					C3.8,16.7,3.5,16.4,3.5,16L3.5,16z M12,16v-5.2c0-0.4,0.3-0.7,0.7-0.7H16c0.4,0,0.7,0.3,0.7,0.7V16c0,0.4-0.3,0.7-0.7,0.7h-3.4
					C12.3,16.7,12,16.4,12,16L12,16z M17.8,16v-5.2c0-0.4,0.3-0.7,0.7-0.7h3.4c0.4,0,0.7,0.3,0.7,0.7V16c0,0.4-0.3,0.7-0.7,0.7h-3.4
					C18.1,16.7,17.8,16.4,17.8,16L17.8,16z M22.5,8.2c0,0.4-0.3,0.7-0.7,0.7h-9.2c-0.4,0-0.7-0.3-0.7-0.7V4c0-0.4,0.3-0.7,0.7-0.7
					h9.2c0.4,0,0.7,0.3,0.7,0.7V8.2L22.5,8.2z"/>
			</g>
			<defs>
				<filter id="icon_x2F_Utility_x2F_collection-Adobe_OpacityMaskFilter" filterUnits="userSpaceOnUse" x="-11" y="-14" width="48" height="48">
					<feColorMatrix  type="matrix" values="1 0 0 0 0  0 1 0 0 0  0 0 1 0 0  0 0 0 1 0"/>
				</filter>
			</defs>
			<mask maskUnits="userSpaceOnUse" x="-11" y="-14" width="48" height="48" id="icon_x2F_Utility_x2F_collection-mask-2">
				<g style="filter:url(#icon_x2F_Utility_x2F_collection-Adobe_OpacityMaskFilter);">
					<path id="icon_x2F_Utility_x2F_collection-path-1" style="fill:#FFFFFF;" d="M26,2.4c0-0.3-0.1-0.6-0.2-0.8c0,0,0-0.1,0-0.1c-0.2-0.5-0.6-0.9-1.1-1.2
						c0,0-0.1,0-0.1-0.1C24.3,0.1,24,0,23.7,0c0,0-0.1,0-0.1,0H2.4c0,0-0.1,0-0.1,0C1,0.1,0.1,1.1,0,2.4c0,0,0,0.1,0,0.1v15
						c0,0,0,0.1,0,0.1c0.1,1.3,1,2.3,2.3,2.4c0,0,0.1,0,0.1,0h21.2c0,0,0.1,0,0.1,0c1.2-0.1,2.2-1.1,2.3-2.4c0,0,0-0.1,0-0.1v-15
						C26,2.5,26,2.4,26,2.4L26,2.4z M3.5,16V4c0-0.4,0.3-0.7,0.7-0.7h6c0.4,0,0.7,0.3,0.7,0.7v12c0,0.4-0.3,0.7-0.7,0.7h-6
						C3.8,16.7,3.5,16.4,3.5,16L3.5,16z M12,16v-5.2c0-0.4,0.3-0.7,0.7-0.7H16c0.4,0,0.7,0.3,0.7,0.7V16c0,0.4-0.3,0.7-0.7,0.7h-3.4
						C12.3,16.7,12,16.4,12,16L12,16z M17.8,16v-5.2c0-0.4,0.3-0.7,0.7-0.7h3.4c0.4,0,0.7,0.3,0.7,0.7V16c0,0.4-0.3,0.7-0.7,0.7
						h-3.4C18.1,16.7,17.8,16.4,17.8,16L17.8,16z M22.5,8.2c0,0.4-0.3,0.7-0.7,0.7h-9.2c-0.4,0-0.7-0.3-0.7-0.7V4
						c0-0.4,0.3-0.7,0.7-0.7h9.2c0.4,0,0.7,0.3,0.7,0.7V8.2L22.5,8.2z"/>
				</g>
			</mask>
			<g id="icon_x2F_Utility_x2F_collection-Color_x2F_Grayscale_x2F_Night-Sky" style="mask:url(#icon_x2F_Utility_x2F_collection-mask-2);">
				<g id="icon_x2F_Utility_x2F_collection-Swatch" transform="translate(-11.000000, -14.000000)">
					<rect style="fill:#111111;" width="48" height="48"/>
				</g>
			</g>
		</g>
	</g>
</g>
</svg>
